src/assets/illustration.svg

<?xml version="1.0" encoding="UTF-8"?>
<svg width="143px" height="133px" viewBox="0 0 143 133" version="1.1" xmlns="http://www.w3.org/2000/svg" xmlns:xlink="http://www.w3.org/1999/xlink">
    <!-- Generator: Sketch 49.1 (51147) - http://www.bohemiancoding.com/sketch -->
    <title>store</title>
    <desc>Created with Sketch.</desc>
    <defs></defs>
    <g id="Page-1" stroke="none" stroke-width="1" fill="none" fill-rule="evenodd" opacity="0.300328351">
        <g id="homepage-copy-4" transform="translate(-220.000000, -314.000000)" stroke="#3C3C3B">
            <g id="volet">
                <g id="body" transform="translate(89.000000, 314.000000)">
                    <g id="store" transform="translate(132.000000, 1.000000)">
                        <path d="M0.0191500777,42.7936864 L0,42.7936864 L0.0227198161,42.7280293 C0.173842515,40.0629579 1.07202336,37.5969491 2.51189974,35.5346475 L12.9451889,5.38390093 C14.0602801,2.16144328 17.0954136,7.73182239e-15 20.5053493,7.10542736e-15 L120.172746,8.8817842e-15 C123.582682,8.25538917e-15 126.617815,2.16144328 127.732907,5.38390093 L138.166196,35.5346475 C139.606072,37.5969491 140.504253,40.0629579 140.655376,42.7280293 L140.678095,42.7936864 L140.658945,42.7936864 C140.67166,43.0380244 140.678095,43.2840175 140.678095,43.5315086 C140.678095,51.2737794 134.379723,57.55013 126.610286,57.55013 C118.840849,57.55013 112.542476,51.2737794 112.542476,43.5315086 C112.542476,43.2840175 112.548912,43.0380244 112.561626,42.7936864 L112.523326,42.7936864 C112.53604,43.0380244 112.542476,43.2840175 112.542476,43.5315086 C112.542476,51.2737794 106.244104,57.55013 98.4746668,57.55013 C90.7052302,57.55013 84.4068573,51.2737794 84.4068573,43.5315086 C84.4068573,43.2840175 84.4132932,43.0380244 84.4260074,42.7936864 L84.3877072,42.7936864 C84.4004214,43.0380244 84.4068573,43.2840175 84.4068573,43.5315086 C84.4068573,51.2737794 78.1084844,57.55013 70.3390477,57.55013 C62.5696111,57.55013 56.2712382,51.2737794 56.2712382,43.5315086 C56.2712382,43.2840175 56.2776741,43.0380244 56.2903883,42.7936864 L56.2520881,42.7936864 C56.2648023,43.0380244 56.2712382,43.2840175 56.2712382,43.5315086 C56.2712382,51.2737794 49.9728653,57.55013 42.2034286,57.55013 C34.433992,57.55013 28.1356191,51.2737794 28.1356191,43.5315086 C28.1356191,43.2840175 28.142055,43.0380244 28.1547692,42.7936864 L28.116469,42.7936864 C28.1291832,43.0380244 28.1356191,43.2840175 28.1356191,43.5315086 C28.1356191,51.2737794 21.8372462,57.55013 14.0678095,57.55013 C6.29837287,57.55013 0,51.2737794 0,43.5315086 C0,43.2840175 0.00643591945,43.0380244 0.0191500777,42.7936864 Z" id="Combined-Shape"></path>
                        <path d="M135.882251,62.3459741 L135.882251,123.086407 C135.882251,127.504685 132.300529,131.086407 127.882251,131.086407 L15.9930736,131.086407 C11.5747956,131.086407 7.99307361,127.504685 7.99307361,123.086407 L7.99307361,62.3459741" id="Rectangle-34"></path>
                        <rect id="Rectangle-38" x="29.2242837" y="74.5251688" width="30.9722944" height="56.55013" rx="5"></rect>
                        <rect id="Rectangle-38" x="75.6348919" y="74.0362772" width="42.1625975" height="32.5709091" rx="5"></rect>
                    </g>
                </g>
            </g>
        </g>
    </g>
</svg>

<svg width="143" height="133" xmlns="http://www.w3.org/2000/svg"><g transform="translate(1 1)" stroke="#3C3C3B" fill="none" fill-rule="evenodd" opacity=".3"><path d="M.02 42.794H0l.023-.066a13.912 13.912 0 0 1 2.489-7.193L12.945 5.384A8 8 0 0 1 20.505 0h99.668a8 8 0 0 1 7.56 5.384l10.433 30.15a13.912 13.912 0 0 1 2.49 7.194l.022.066h-.02c.014.244.02.49.02.738 0 7.742-6.298 14.018-14.068 14.018s-14.068-6.276-14.068-14.018c0-.248.007-.494.02-.738h-.039c.013.244.02.49.02.738 0 7.742-6.299 14.018-14.068 14.018-7.77 0-14.068-6.276-14.068-14.018 0-.248.006-.494.019-.738h-.038c.012.244.019.49.019.738 0 7.742-6.299 14.018-14.068 14.018-7.77 0-14.068-6.276-14.068-14.018 0-.248.007-.494.02-.738h-.039c.013.244.02.49.02.738 0 7.742-6.3 14.018-14.069 14.018-7.769 0-14.067-6.276-14.067-14.018 0-.248.006-.494.019-.738h-.039c.013.244.02.49.02.738 0 7.742-6.299 14.018-14.068 14.018C6.298 57.55 0 51.274 0 43.532c0-.248.006-.494.02-.738zM135.882 62.346v60.74a8 8 0 0 1-8 8H15.993a8 8 0 0 1-8-8v-60.74"/><rect x="29.224" y="74.525" width="30.972" height="56.55" rx="5"/><rect x="75.635" y="74.036" width="42.163" height="32.571" rx="5"/></g></svg>
